icons/desktop/16/svg/copy-16.svg

<svg width="16" height="16" viewBox="0 0 16 16" fill="none" xmlns="http://www.w3.org/2000/svg">
<path fill-rule="evenodd" clip-rule="evenodd" d="M9.5 3.99939C10.407 3.99939 11.47 4.05227 12.6494 4.21131C14.0167 4.39566 14.9998 5.58454 15 6.93299V12.0648C14.9996 13.4402 13.9874 14.6092 12.6172 14.7924C11.6834 14.9173 10.6382 15.0004 9.5 15.0004C8.59297 15.0004 7.52995 14.9475 6.35059 14.7885C4.98343 14.6041 4.00039 13.4151 4 12.0668V6.93494C4.00022 5.55938 5.0125 4.3906 6.38281 4.2074C7.31659 4.08242 8.36181 3.99939 9.5 3.99939ZM9.5 5.49939C8.4343 5.49939 7.45521 5.57672 6.58105 5.69373C5.96188 5.77667 5.50022 6.30503 5.5 6.93494V12.0668C5.50039 12.6956 5.95879 13.2222 6.55078 13.3021C7.65538 13.4511 8.65106 13.5004 9.5 13.5004C10.5657 13.5004 11.5448 13.423 12.4189 13.306C13.038 13.2231 13.4996 12.6946 13.5 12.0648V6.93299C13.4998 6.30403 13.0413 5.77758 12.4492 5.69763C11.3446 5.54868 10.349 5.49939 9.5 5.49939Z" fill="black"/>
<path d="M3.38086 1.2074C5.46086 0.9314 7.58041 0.933283 9.64941 1.21228C10.5202 1.3294 11.2464 1.86798 11.6523 2.60486C10.9354 2.54286 10.2161 2.50135 9.49707 2.50135C8.99612 2.50135 8.49314 2.52116 7.99219 2.55115C7.49419 2.51715 6.996 2.50037 6.5 2.50037C5.53004 2.50037 4.54804 2.56476 3.58008 2.69275C2.96509 2.77575 2.50002 3.30896 2.5 3.93494V9.0658L2.49902 9.06678V11.516C1.60602 11.06 0.999023 10.1268 0.999023 9.06678V3.93592C0.999055 2.56102 2.02399 1.38949 3.38086 1.2074Z" fill="black"/>
</svg>

<!-- This Source Code Form is subject to the terms of the Mozilla Public
   - License, v. 2.0. If a copy of the MPL was not distributed with this
   - file, You can obtain one at http://mozilla.org/MPL/2.0/. -->
<svg xmlns="http://www.w3.org/2000/svg" width="16" height="16" fill="context-fill" fill-opacity="context-fill-opacity" viewBox="0 0 16 16">
    <path fill-rule="evenodd" d="M9.5 4c.907 0 1.97.052 3.15.211C14.016 4.396 15 5.585 15 6.933v5.132a2.75 2.75 0 0 1-2.383 2.727 23.5 23.5 0 0 1-6.266-.003C4.983 14.604 4 13.415 4 12.067V6.935a2.75 2.75 0 0 1 2.383-2.728A23.5 23.5 0 0 1 9.5 4m0 1.5c-1.066 0-2.045.077-2.919.194-.62.083-1.08.611-1.081 1.24v5.133c0 .629.459 1.155 1.05 1.235a22 22 0 0 0 5.869.004 1.25 1.25 0 0 0 1.081-1.241V6.933c0-.629-.459-1.155-1.05-1.235a22 22 0 0 0-2.95-.199" clip-rule="evenodd" />
    <path d="M3.38 1.207c2.08-.276 4.2-.274 6.27.005.87.117 1.596.656 2.002 1.393A25 25 0 0 0 9.497 2.5c-.5 0-1.004.02-1.505.05q-.747-.05-1.492-.05c-.97 0-1.952.064-2.92.192A1.255 1.255 0 0 0 2.5 3.935v5.13l-.001.002v2.449a2.76 2.76 0 0 1-1.5-2.45v-5.13a2.76 2.76 0 0 1 2.382-2.729" />
</svg>
